ui_kit/lib/assets/icons/snapshot.svg

<svg width="16" height="16" viewBox="0 0 16 16" fill="none" xmlns="http://www.w3.org/2000/svg">
<path d="M2.4 0C1.76348 0 1.15303 0.252856 0.702944 0.702944C0.252856 1.15303 0 1.76348 0 2.4V4.8C0 5.24183 0.358172 5.6 0.8 5.6C1.24183 5.6 1.6 5.24183 1.6 4.8V2.4C1.6 2.18783 1.68429 1.98434 1.83431 1.83431C1.98434 1.68429 2.18783 1.6 2.4 1.6H13.6C13.8122 1.6 14.0157 1.68429 14.1657 1.83431C14.3157 1.98434 14.4 2.18783 14.4 2.4V4.8C14.4 5.24183 14.7582 5.6 15.2 5.6C15.6418 5.6 16 5.24183 16 4.8V2.4C16 1.76348 15.7471 1.15303 15.2971 0.702944C14.847 0.252856 14.2365 0 13.6 0H2.4Z" fill="white"/>
<path d="M1.6 11.2C1.6 10.7582 1.24183 10.4 0.8 10.4C0.358172 10.4 0 10.7582 0 11.2V13.6C0 14.2365 0.252856 14.847 0.702944 15.2971C1.15303 15.7471 1.76348 16 2.4 16H13.6C14.2365 16 14.847 15.7471 15.2971 15.2971C15.7471 14.847 16 14.2365 16 13.6V11.2C16 10.7582 15.6418 10.4 15.2 10.4C14.7582 10.4 14.4 10.7582 14.4 11.2V13.6C14.4 13.8122 14.3157 14.0157 14.1657 14.1657C14.0157 14.3157 13.8122 14.4 13.6 14.4H2.4C2.18783 14.4 1.98434 14.3157 1.83431 14.1657C1.68429 14.0157 1.6 13.8122 1.6 13.6V11.2Z" fill="white"/>
<path d="M6.86865 6.86856C7.1687 6.5685 7.57567 6.39993 8.00002 6.39993C8.42436 6.39993 8.83133 6.5685 9.13139 6.86856C9.43145 7.16862 9.60002 7.57558 9.60002 7.99993C9.60002 8.42428 9.43145 8.83124 9.13139 9.1313C8.83133 9.43136 8.42436 9.59993 8.00002 9.59993C7.57567 9.59993 7.1687 9.43136 6.86865 9.1313C6.56859 8.83124 6.40002 8.42428 6.40002 7.99993C6.40002 7.57558 6.56859 7.16862 6.86865 6.86856Z" fill="white"/>
<path fill-rule="evenodd" clip-rule="evenodd" d="M14.3126 7.63642L14.3115 7.63425L14.3093 7.63007L14.3028 7.61742C14.2974 7.6071 14.2899 7.59306 14.2805 7.57553C14.2616 7.54048 14.2346 7.49146 14.1997 7.43045C14.1298 7.30853 14.0278 7.13814 13.8945 6.93538C13.6287 6.53135 13.2335 5.99091 12.7149 5.44757C11.6911 4.37512 10.0956 3.19997 7.99998 3.19997C5.90401 3.19997 4.3085 4.37508 3.28479 5.4476C2.76615 5.99095 2.371 6.53141 2.10534 6.93546C1.97202 7.13822 1.87001 7.30862 1.8002 7.43054C1.76526 7.49156 1.73829 7.54058 1.71941 7.57563C1.70997 7.59316 1.70254 7.60721 1.69714 7.61753L1.69056 7.63018L1.68841 7.63436L1.68762 7.6359C1.68762 7.6359 1.68703 7.63707 2.39998 7.99996L1.68703 7.63707C1.57097 7.86508 1.57097 8.13485 1.68703 8.36286C1.68703 8.36286 1.68703 8.36286 2.39998 7.99996L1.68703 8.36286L1.68762 8.36403L1.68841 8.36557L1.69056 8.36975L1.69714 8.3824C1.70254 8.39272 1.70997 8.40677 1.71941 8.4243C1.73829 8.45934 1.76526 8.50837 1.8002 8.56939C1.87001 8.69131 1.97202 8.86171 2.10534 9.06447C2.371 9.46852 2.76615 10.009 3.28479 10.5523C4.3085 11.6248 5.90401 12.8 7.99998 12.8C10.0956 12.8 11.6911 11.6248 12.7149 10.5524C13.2335 10.009 13.6287 9.46858 13.8945 9.06455C14.0278 8.86179 14.1298 8.6914 14.1997 8.56948C14.2346 8.50847 14.2616 8.45945 14.2805 8.4244C14.2899 8.40687 14.2974 8.39283 14.3028 8.38251L14.3093 8.36986L14.3115 8.36568L14.3123 8.36414C14.3123 8.36414 14.3129 8.36297 13.6 7.99996L14.3129 8.36297C14.429 8.1349 14.4287 7.86449 14.3126 7.63642ZM3.32361 7.99996C3.35887 8.0567 3.39844 8.11882 3.44225 8.18546C3.66972 8.53141 4.00631 8.99095 4.44218 9.4476C5.32746 10.3751 6.53195 11.2 7.99998 11.2C9.46759 11.2 10.6721 10.3751 11.5575 9.44757C11.9934 8.99091 12.3301 8.53135 12.5577 8.18538C12.6015 8.11878 12.641 8.05668 12.6763 7.99996C12.641 7.94325 12.6015 7.88115 12.5577 7.81455C12.3301 7.46858 11.9934 7.00902 11.5575 6.55236C10.6721 5.62481 9.46759 4.79997 7.99998 4.79997C6.53195 4.79997 5.32746 5.62485 4.44218 6.55233C4.00631 7.00898 3.66972 7.46852 3.44225 7.81447C3.39844 7.88111 3.35887 7.94323 3.32361 7.99996ZM13.6 7.99996C14.3129 7.63696 14.3126 7.63642 14.3126 7.63642L13.6 7.99996Z" fill="white"/>
</svg>

<svg xmlns="http://www.w3.org/2000/svg" width="16" height="16" fill="none" viewBox="0 0 16 16"><path fill="#fff" d="M2.4 0A2.4 2.4 0 0 0 0 2.4v2.4a.8.8 0 1 0 1.6 0V2.4a.8.8 0 0 1 .8-.8h11.2a.8.8 0 0 1 .8.8v2.4a.8.8 0 0 0 1.6 0V2.4A2.4 2.4 0 0 0 13.6 0H2.4Zm-.8 11.2a.8.8 0 0 0-1.6 0v2.4A2.4 2.4 0 0 0 2.4 16h11.2a2.4 2.4 0 0 0 2.4-2.4v-2.4a.8.8 0 0 0-1.6 0v2.4a.8.8 0 0 1-.8.8H2.4a.8.8 0 0 1-.8-.8v-2.4Zm5.269-4.331A1.6 1.6 0 1 1 9.13 9.13a1.6 1.6 0 0 1-2.26-2.26Z"/><path fill="#fff" fill-rule="evenodd" d="m14.313 7.636-.002-.002-.002-.004-.006-.013a5.167 5.167 0 0 0-.103-.187 10.675 10.675 0 0 0-1.485-1.983C11.69 4.376 10.095 3.2 8 3.2c-2.096 0-3.691 1.175-4.715 2.248A10.659 10.659 0 0 0 1.8 7.43a6.455 6.455 0 0 0-.103.187l-.006.012-.003.004v.002s-.001.001.712.364l-.713-.363a.8.8 0 0 0 0 .726L2.4 8l-.713.363v.001l.001.002.003.004.006.012a4.02 4.02 0 0 0 .103.187 10.656 10.656 0 0 0 1.485 1.983C4.309 11.625 5.904 12.8 8 12.8c2.096 0 3.691-1.175 4.715-2.248A10.679 10.679 0 0 0 14.2 8.57a6.695 6.695 0 0 0 .103-.186l.006-.013.003-.004v-.002L13.6 8l.713.363a.801.801 0 0 0 0-.727ZM3.323 8c.036.057.075.119.12.185.227.346.563.806 1 1.263C5.326 10.375 6.531 11.2 8 11.2s2.672-.825 3.557-1.752A9.073 9.073 0 0 0 12.677 8a9.073 9.073 0 0 0-1.119-1.448C10.671 5.625 9.467 4.8 8 4.8s-2.673.825-3.558 1.752A9.061 9.061 0 0 0 3.324 8ZM13.6 8l.713-.364L13.6 8Z" clip-rule="evenodd"/></svg>
